!!!OTL: 1266b. Das Hausgesinde.
!!!ARE: Europa, Mitteleuropa, Deutschland
!!!SCT: K1266
!!!TXL: @@DE
!!!YEM: Copyright 1995, estate of Helmut Schaffrath.
**kern	**text
*clefG2	*
*M3/8	*
*k[f#c#]	*
*D:	*
=1	=1
{8.d	1._Wi-
16e	-de-
16f#	-wi-
16g	-de-
=2	=2
8a	-wen-
8dd}	-ne
{8f#	heißt
=3	=3
8a	mei-
8g	-ne
8e	Put-
=4	=4
8e	-hen-
8d	-ne.
8r}	.
=5	=5
!LO:TX:a:t=Ʒu Str. 2 bis 7.	!
{8a	Kann
8g	nicht
8e	ruhn,
=6	=6
8b	heißt
8a	mein
8f#}	Huhn,
=7	=7
{8a	Wa-
8g	-cel-
8e	-ſchwanʒ
=8	=8
8b/	heißt
8a	mei_ne
8f#}	Gans.
=9	=9
{8.d	Wi-
16e	-de-
16f#	-wi-
16g	-de-
=10	=10
8a	-wen-
8dd}	-ne
{8f#	heißt
=11	=11
8a	mei-
8g	-ne
8e	Put-
=12	=12
8e	-hen-
8d	-ne.
8r}	.
==	==
!!!AGN: Kinder - Lied, Zaehl - Geschichte
!!!ONB: ESAC (Essen Associative Code) Database: KINDER
!!!AMT: simple triple
!!!AIN: vox
!!!EED: Helmut Schaffrath
!!!EEV: 1.0
!!Pocci u. Raumer Nr. 9.
!!!GTL: VIII. Lustige geschichten. [Thiermaerchen, Neck- und Luegenmaerchen und Zaehlgeschichten.]
!!!URL-scan: https://archive.org/details/DeutschesKinderliedUndKinderspiel/page/269/mode/1up
!!!ENC: Anna Maria Matuszewska
!!!EEV: 2024/02/09
*-	*-
